X:1
T:G Major Oliver Holden, 1793
T:Isaac Watts, 1719 (Psalm 72)   88. 88. (L. M.)
T:Fairlee No copyright. Transcribed from The Union Harmony, 1793.
%%score [ 1 2 3 4 ]
L:1/8
M:4/4
K:G
V:1 treble nm="Treble" snm="Tr."
V:2 treble nm="Counter" snm="C."
V:3 treble-8 nm="Tenor" snm="T."
V:4 bass nm="Bass" snm="B."
V:1
 B4 | (G3 A G2) A2 | B4 G4 | d4 d4 | d8 || d4 d2 d2 | (d3 c B2) c2 | B4 G4 | A8 || B4 B2 B2 | %10
w: 1.~Je-|sus~ _ _ shall|reign where-|e'er the|sun|Does his suc-|ces- * * sive|jour- neys|run;|His king- dom|
w: 2.~For|Him~ _ _ shall|end- less|prayer be|made,|And prai- ses|throng * * to|crown His|head;|His name like|
 d4 d4 | B4 (A2 B2) | c4 B4 | (A2 B2) (c2 d2) | e4 g4 | (f3 e) (d2 c2) | B8 |] %17
w: stretch from|shore to *|shore, Till|moons * shall *|wax and|wane * no *|more.|
w: sweet per-|fume shall *|rise With|eve- * ry *|mor- ning|sac- * ri- *|fice.|
V:2
 D4 | E6 F2 | G4 G4 | F4 G4 | F8 || F4 F2 F2 | G4 G4 | G4 G4 | F8 || G4 G2 G2 | G4 D4 | E4 G4 | %12
w: 3.~Peo-|ple and|realms of|eve- ry|tongue|Dwell on His|love with|swee- test|song;|And in- fant|voi- ces|shall pro-|
w: 4.~Bles-|sings a-|bound where-|e'er He|reigns,|The pris- oner|leaps to|lose his|chains;|The wea- ry|find e-|ter- nal|
 A4 F4 | E4 (F2 G2) | A4 B4 | A4 F4 | G8 |] %17
w: claim Their|ear- ly *|bles- sings|on His|name.|
w: rest, And|all the *|sons of|want are|blessed.|
V:3
 G4 | (B3 A B2) c2 | d4 c4 | BAGA B4 | A8 || A4 A2 A2 | (B3 A G2) F2 | (G3 A B2) ^c2 | d8 || %9
w: 5.~Where|He~ _ _ dis-|plays His|hea- * * * ling|power,|Death and the|curse~ _ _ are|known~ _ _ no|more;|
w: 6.~Let|eve- * * ry|crea- ture|rise~ _ _ _ and|bring|Pe- cu- liar|ho- * * nors|to~ _ _ our|King;|
 d4 d2 d2 | g4 f4 | (g2 f2) (e2 d2) | e4 d4 | (e2 d2) (c2 B2) | c4 B4 | (d3 c) (B2 A2) | G8 |] %17
w: In him the|tribes of|A- * dam *|boast More|bles- * sings *|than their|fath- * er *|lost.|
w: An- gels de-|scend with|songs * a- *|gain, And|earth * re- *|peat the|long~ _ A- *|men.|
V:4
 G,4 | E,6 D,2 | G,4 C,4 | D,4 D,4 | D,8 || D,4 D,2 D,2 | (G,3 A, B,2) A,2 | G,4 E,4 | D,8 || %9
 G,4 G,2 G,2 | G,4 B,4 | (G,2 B,2) (C2 B,2) | A,4 B,4 | (C2 B,2) (A,2 G,2) | A,4 G,4 | D,4 D,4 | %16
 [G,,G,]8 |] %17

